X: 78
T:Running the Goat #1
R:Polka
N:Running the Goat is the name of a set dance from Harbour Deep,
N:Newfoundland. This is originally the tune that was played there for the
N:dance.  St John's musicians added the other three tunes.  The B part
N:doesn't get repeated.
Z:Added by alf.warnock@rogers.com
M:2/4
L:1/8
K:G
E>F ED|(3EFG A2|BG GA|BD E2|
DE FG|ABA2|BD (3EFE|D2D2:|
Bddc|BcA2|BG GA|BGA2|
Bddc|BcA2|BD (3EFE|D2D2|]

